flaticon/gastronomy/butter.svg

<svg xmlns="http://www.w3.org/2000/svg" width="32" height="23pt" viewBox="0 0 24 23">
    <path d="M 20.398438 6.246094 C 20.117188 5.933594 19.875 5.660156 19.757812 5.367188 L 19.835938 5.367188 C 20.707031 5.367188 21.414062 4.691406 21.414062 3.855469 L 21.414062 1.511719 C 21.414062 0.679688 20.707031 0 19.835938 0 L 4.15625 0 C 3.285156 0 2.578125 0.679688 2.578125 1.511719 L 2.578125 3.855469 C 2.578125 4.691406 3.285156 5.367188 4.15625 5.367188 L 4.242188 5.367188 C 4.125 5.65625 3.882812 5.929688 3.605469 6.242188 C 2.957031 6.964844 2.070312 7.957031 2.070312 9.960938 L 2.070312 17.101562 C 2.070312 20.355469 4.828125 23 8.222656 23 L 15.773438 23 C 18.902344 23 21.484375 20.753906 21.875 17.855469 C 21.910156 17.757812 21.929688 17.65625 21.929688 17.546875 L 21.929688 9.960938 C 21.929688 7.960938 21.046875 6.96875 20.398438 6.246094 Z M 3.597656 3.855469 L 3.597656 1.511719 C 3.597656 1.21875 3.847656 0.976562 4.15625 0.976562 L 19.835938 0.976562 C 20.144531 0.976562 20.394531 1.214844 20.394531 1.511719 L 20.394531 3.855469 C 20.394531 4.152344 20.144531 4.390625 19.835938 4.390625 L 4.15625 4.390625 C 3.847656 4.390625 3.597656 4.152344 3.597656 3.855469 Z M 20.886719 17.570312 L 13.273438 17.570312 L 13.273438 10.25 L 20.914062 10.25 L 20.914062 11.726562 L 15.769531 11.726562 L 15.769531 16.078125 L 20.886719 16.078125 C 20.894531 16.078125 20.902344 16.078125 20.914062 16.078125 L 20.914062 17.101562 C 20.914062 17.257812 20.902344 17.414062 20.886719 17.570312 Z M 20.914062 12.699219 L 20.914062 15.078125 C 20.914062 15.09375 20.902344 15.101562 20.886719 15.101562 L 16.789062 15.101562 L 16.789062 12.699219 Z M 15.777344 22.023438 L 8.222656 22.023438 C 5.390625 22.023438 3.085938 19.816406 3.085938 17.101562 L 3.085938 9.960938 C 3.085938 8.316406 3.742188 7.585938 4.375 6.878906 C 4.746094 6.464844 5.097656 6.074219 5.257812 5.550781 L 5.277344 5.410156 L 18.722656 5.410156 L 18.742188 5.539062 C 18.902344 6.074219 19.253906 6.464844 19.625 6.882812 C 20.160156 7.480469 20.707031 8.101562 20.863281 9.273438 L 12.253906 9.273438 L 12.253906 18.546875 L 20.6875 18.546875 C 20.039062 20.558594 18.082031 22.023438 15.777344 22.023438 Z M 15.777344 22.023438"/>
    <path d="M 6.25 6.714844 C 5.726562 7.359375 5.125 8.308594 5.125 9.960938 L 5.125 17.101562 C 5.125 17.371094 5.351562 17.589844 5.632812 17.589844 C 5.914062 17.589844 6.144531 17.371094 6.144531 17.101562 L 6.144531 9.960938 C 6.144531 8.613281 6.601562 7.867188 7.054688 7.316406 C 7.226562 7.101562 7.1875 6.796875 6.964844 6.628906 C 6.742188 6.464844 6.421875 6.5 6.25 6.714844 Z M 6.25 6.714844"/>
</svg>

<svg xmlns="http://www.w3.org/2000/svg" width="32" height="23pt" viewBox="0 0 24 23">
    <path d="M20.398 6.246c-.28-.312-.523-.586-.64-.879h.078c.871 0 1.578-.676 1.578-1.512V1.512C21.414.68 20.707 0 19.836 0H4.156c-.87 0-1.578.68-1.578 1.512v2.343c0 .836.707 1.512 1.578 1.512h.086c-.117.29-.36.563-.637.875-.648.723-1.535 1.715-1.535 3.719v7.14C2.07 20.356 4.828 23 8.223 23h7.55c3.13 0 5.711-2.246 6.102-5.145a.9.9 0 0 0 .055-.308V9.96c0-2-.883-2.992-1.532-3.715zm-16.8-2.39V1.511c0-.293.25-.535.558-.535h15.68c.309 0 .559.238.559.535v2.343c0 .297-.25.536-.56.536H4.157a.546.546 0 0 1-.558-.536zM20.887 17.57h-7.614v-7.32h7.641v1.477H15.77v4.351h5.144v1.024c0 .156-.012.312-.027.468zm.027-4.87v2.378c0 .016-.012.024-.027.024h-4.098v-2.403zm-5.137 9.323H8.223c-2.832 0-5.137-2.207-5.137-4.921V9.96c0-1.645.656-2.375 1.289-3.082.371-.414.723-.805.883-1.328l.02-.14h13.445l.02.128c.16.535.51.926.882 1.344.535.597 1.082 1.219 1.238 2.39h-8.61v9.274h8.434c-.648 2.012-2.605 3.476-4.91 3.476zm0 0"/>
    <path d="M6.25 6.715c-.523.644-1.125 1.594-1.125 3.246v7.14c0 .27.227.489.508.489a.501.501 0 0 0 .512-.488V9.96c0-1.348.457-2.094.91-2.645a.478.478 0 0 0-.09-.687.524.524 0 0 0-.715.086zm0 0"/>
</svg>
